icons/back-to-top.svg

<svg xmlns="http://www.w3.org/2000/svg" viewBox="0 0 40 30" enable-background="new 0 0 40 30"><style type="text/css">.st0{fill:none;}</style><path class="st0" d="M0 0h40v30h-40z"/><path d="M9 24.8h-7.1v-7.2h7.1v7.2zm7.2-7.2h-7.2v-7.2h7.2v7.2zm7.2-7.2h-7.2v-7.2h7.2v7.2zm7.2 7.2h-7.2v-7.2h7.2v7.2zm0 0h7.2v7.2h-7.2v-7.2z"/></svg>

<?xml version="1.0" encoding="utf-8"?>
<!-- Generator: Adobe Illustrator 19.1.0, SVG Export Plug-In . SVG Version: 6.00 Build 0)  -->
<svg version="1.1" id="Layer_1" xmlns="http://www.w3.org/2000/svg" xmlns:xlink="http://www.w3.org/1999/xlink" x="0px" y="0px"
	 viewBox="0 0 40 30" style="enable-background:new 0 0 40 30;" xml:space="preserve">
<style type="text/css">
	.st0{fill:none;}
</style>
<rect y="0" class="st0" width="40" height="30"/>
<g>
	<path d="M9,24.8H1.9v-7.2H9V24.8z M16.2,17.6H9v-7.2h7.2V17.6z M23.4,10.4h-7.2V3.2h7.2V10.4z M30.6,17.6h-7.2v-7.2h7.2V17.6z
		 M30.6,17.6h7.2v7.2h-7.2V17.6z"/>
</g>
</svg>
